X: 53
T:Missa L'ami Baudichon / Credo
N: Derived from Jos0501c-Missa_Lami_Baudichon-Credo.krn
C: Josquin des Prez
%%abc-version 2.0
%%abcx-abcm2ps-target-version 5.9.1 (29 Sep 2008)
%%abc-creator hum2abc beta
%%abcx-conversion-date 2019/02/12 16:15:40
%%abc-edited-by Jesse Rodin
%%abc-edited-by Jesse Rodin; Victoria Chang 2012/02/01
%%abcx-initial-encoding-date 2012/02/01/
%%humdrum-veritas 2676294171
%%humdrum-veritas-data 2905288103
%%linebreak <none>
%%barnumbers 0
L: 1/4
M: 3/1
Q: 1/2=120
%%staves [1 2 3 4]
V: 1 clef=treble
V: 2 clef=treble-8
V: 3 clef=treble-8
V: 4 clef=bass
K: C
[V:1] c8c4 | 
[V:2] c8e2f2 | 
[V:3] z12 :
[V:4] z12 | 
[V:1] B4A6G2 | 
[V:2] g4f6e2 | 
[V:3] z12 :
[V:4] z12 | 
[V:1] G4F6E2 | 
[V:2] e4d2d3cA2 | 
[V:3] z12 | 
[V:4] z12 | 
[V:1] E4D6C2 | 
[V:2] G2c2d2B4A2 | 
[V:3] z12 :
[V:4] z12 | 
[V:1] C8z4 | 
[V:2] c12 | 
[V:3] z12 :
[V:4] z12 | 
[V:1] C8D4 | 
[V:2] z12 | 
[V:3] z12 | 
[V:4] z12 | 
[V:1] E8F4 | 
[V:2] c8d4 | 
[V:3] z12 :
[V:4] z12 | 
[V:1] G3AB2c4BA | 
[V:2] e8f4 | 
[V:3] z12 :
[V:4] z12 | 
[V:1] B4e6d2 | 
[V:2] g8c4 | 
[V:3] z12 | 
[V:4] z12 | 
[V:1] d4c2e4dc | 
[V:2] B4A8 | 
[V:3] z12 :
[V:4] z12 | 
[V:1] B2d4cBA2G2 | 
[V:2] G3AB2c2d2e2 | 
[V:3] z12 :
[V:4] z12 | 
[V:1] A2G4c4B2 | 
[V:2] f2g2c4d4 | 
[V:3] z12 | 
[V:4] z12 | 
[V:1] c4z4c4 | 
[V:2] c12 | 
[V:3] z12 :
[V:4] C,12 | 
[V:1] c4B2c4BA | 
[V:2] z12 | 
[V:3] z12 :
[V:4] z4z4C4 | 
[V:1] G4z2C2E2F2 | 
[V:2] z12 | 
[V:3] z12 | 
[V:4] C4B,2C4B,A, | 
[V:1] G4F2G4FE | 
[V:2] z12 | 
[V:3] z12 :
[V:4] G,4z2C,2E,2F,2 | 
[V:1] D2G2A2B2G4 | 
[V:2] z12 | 
[V:3] z12 :
[V:4] G,4F,2G,4E,2 | 
[V:1] z4E4F2G2- | 
[V:2] z12 | 
[V:3] z12 | 
[V:4] F,2G,4C,2D,2E,2 | 
[V:1] GFE2D2E2C4 | 
[V:2] e4f2g3fe2 | 
[V:3] z12 :
[V:4] C,4z4z4 | 
[V:1] z4E4F2G2- | 
[V:2] d2e2c4z4 | 
[V:3] z12 :
[V:4] z12 | 
[V:1] G2C2D2E2C4 | 
[V:2] e4f2g4c2 | 
[V:3] z12 | 
[V:4] z12 | 
[V:1] z2G4G2A2B2 | 
[V:2] d2e2c4z2g2- | 
[V:3] z12 :
[V:4] z12 | 
[V:1] G4d4c4 | 
[V:2] g2e2f2g2e2c2 | 
[V:3] z12 :
[V:4] z12 | 
[V:1] B4e4d4 | 
[V:2] d2e3dc2B2G2 | 
[V:3] z12 | 
[V:4] z12 | 
[V:1] c2d4B2c2d2 | 
[V:2] A2B2G4z2g2- | 
[V:3] z12 :
[V:4] z12 | 
[V:1] B4e4d4 | 
[V:2] gfe3dc2B2d2 | 
[V:3] z12 :
[V:4] z12 | 
[V:1] c2d3cBAB4 | 
[V:2] e2f3edcd4 | 
[V:3] z12 | 
[V:4] z12 | 
[V:1] c12 | 
[V:2] c8c4 | 
[V:3] e12- :
[V:4] z4z4C4 | 
[V:1] z12 | 
[V:2] g4e4c4 | 
[V:3] e12 :
[V:4] C6B,2A,4 | 
[V:1] z4z4G4 | 
[V:2] B2c4BAG4 | 
[V:3] e12 | 
[V:4] G,2A,4G,F,E,4 | 
[V:1] A8A4 | 
[V:2] d12 | 
[V:3] f12- :
[V:4] D,12 | 
[V:1] A6Bcd4 | 
[V:2] z4z4d4 | 
[V:3] f12 :
[V:4] D8B,4- | 
[V:1] d4c2c4BA | 
[V:2] d2f4edc4 | 
[V:3] f12 | 
[V:4] B,4A,8 | 
[V:1] B12 | 
[V:2] z2d4G2d2e2 | 
[V:3] g12- :
[V:4] G,12- | 
[V:1] B6c2d4 | 
[V:2] d2g3fe2d4 | 
[V:3] g12 :
[V:4] G,8G,4 | 
[V:1] e4e2d3cBA | 
[V:2] c4z4G4 | 
[V:3] g12- | 
[V:4] C6B,6 | 
[V:1] G4z4d4 | 
[V:2] e4c2e2d4 | 
[V:3] g12 :
[V:4] C6G,6 | 
[V:1] e2c2e2d4g2- | 
[V:2] c4z4G4 | 
[V:3] g12- :
[V:4] C6B,6 | 
[V:1] gfe4dcB3A | 
[V:2] e2c2e4d4 | 
[V:3] g12 | 
[V:4] C6G,6 | 
[V:1] c8z4 | 
[V:2] c12 | 
[V:3] e12- :
[V:4] C,12- | 
[V:1] G4G2G2E3C | 
[V:2] z4z4g4 | 
[V:3] e12 :
[V:4] C,12 | 
[V:1] C4z4G4 | 
[V:2] g2g2e3cc4 | 
[V:3] e12 | 
[V:4] z12 | 
[V:1] F2A4B2c2d2- | 
[V:2] d6cBA2_B2- | 
[V:3] f12- :
[V:4] z12 | 
[V:1] d2cBA4z2D2- | 
[V:2] B2AGF3GA2_B2- | 
[V:3] f12 :
[V:4] z12 | 
[V:1] DEFGA3Bc3d | 
[V:2] Bcd4c=BA4 | 
[V:3] f12 | 
[V:4] z12 | 
[V:1] B12 | 
[V:2] z2G2B2c2d4 | 
[V:3] g12- :
[V:4] G,8G,4 | 
[V:1] z12 | 
[V:2] e2g3fe3dc2 | 
[V:3] g12 :
[V:4] E,4C,8 | 
[V:1] z12 | 
[V:2] B2e2dcc4B2 | 
[V:3] z12 | 
[V:4] G,4F,2E,2D,4 | 
[V:1] G4A2c4B2 | 
[V:2] c8z4 | 
[V:3] c12- :
[V:4] C,12- | 
[V:1] G2A4GFE4 | 
[V:2] e6f2g4 | 
[V:3] c12 :
[V:4] C,12 | 
[V:1] z2e4d2c4 | 
[V:2] c3defg4^f2 | 
[V:3] c12 | 
[V:4] C6B,2A,4 | 
[V:1] B2d4cBA4 | 
[V:2] g4G4A4 | 
[V:3] d12- :
[V:4] G,8F,4 | 
[V:1] G4z4A4 | 
[V:2] B3cd3cA4 | 
[V:3] d12 :
[V:4] G,6D,6 | 
[V:1] B3cd3cA4 | 
[V:2] G4z4A4 | 
[V:3] d12 | 
[V:4] G,6F,6 | 
[V:1] G12 | 
[V:2] B8z4 | 
[V:3] e12- :
[V:4] E,8E,4 | 
[V:1] z12 | 
[V:2] c3BA2G2c3B | 
[V:3] e12 :
[V:4] C,8C,4 | 
[V:1] z4c3BA2G2 | 
[V:2] A2G2A2E2z4 | 
[V:3] e12 | 
[V:4] C3B,A,2G,2C3B, | 
[V:1] c3BA2G2A2E2 | 
[V:2] z4c4A2c2- | 
[V:3] e12- :
[V:4] A,2G,2A,2E,2z4 | 
[V:1] z2E2G3AB2c2 | 
[V:2] c2BAG2c2B2A2 | 
[V:3] e12 :
[V:4] C,3D,E,3F,G,2A,2 | 
[V:1] B2c3BA4^G2 | 
[V:2] e6c2B4 | 
[V:3] e12 | 
[V:4] E,2A,2G,2A,2E,4 | 
[V:1] A4z4A4- | 
[V:2] A4F2G2A4 | 
[V:3] c12- :
[V:4] z2F,4C,2F,3G, | 
[V:1] A2c3BA4GF | 
[V:2] z2F2A3Bc4 | 
[V:3] c12 :
[V:4] A,4z2F,2A,3B, | 
[V:1] E2c4BAG4 | 
[V:2] z4F4G4 | 
[V:3] c12 | 
[V:4] C2A,4G,F,E,4 | 
[V:1] F2D2F3GA4 | 
[V:2] A8z2d2 | 
[V:3] d12- :
[V:4] D,12- | 
[V:1] D4z2D2F2G2 | 
[V:2] f2d2f3ga4 | 
[V:3] d12 :
[V:4] D,12 | 
[V:1] A4F2A4B2 | 
[V:2] d2a3gf4ed | 
[V:3] d12 | 
[V:4] z4z4D,4 | 
[V:1] c4A2c4BA | 
[V:2] c6A2c3d | 
[V:3] e12- :
[V:4] A,12 | 
[V:1] G4z2C2E3F | 
[V:2] e3fg4c2g2- | 
[V:3] e12 :
[V:4] C12 | 
[V:1] G6FED4 | 
[V:2] gfe4dcB4 | 
[V:3] z12 | 
[V:4] C,3D,E,3F,G,4 | 
[V:1] G3AB2c3BA2 | 
[V:2] e4d2c2e2f2 | 
[V:3] z12 :
[V:4] z12 | 
[V:1] G2B2c2d4f2 | 
[V:2] g3fedf3ed2 | 
[V:3] z12 :
[V:4] z12 | 
[V:1] e2d3cc4B2 | 
[V:2] c2B2c4d4 | 
[V:3] z12 | 
[V:4] z2G,2A,4G,4 | 
[V:1] c12 ||  
[V:2] c12 ||  
[V:3] e12 ||  
[V:4] C,12 ||  
[V:1]  [K:C] [K:clef=treble][M:2/1]c8 | 
[V:2]  [K:C] [K:clef=treble-8][M:2/1]c8 | 
[V:3]  [K:C] [K:clef=treble-8][M:2/1]z8 | 
[V:4]  [K:C] [K:clef=bass][M:2/1]z8 | 
[V:1] B4c4 | 
[V:2] G4A4 | 
[V:3] z8 | 
[V:4] z8 | 
[V:1] d6c2 | 
[V:2] B4G4 | 
[V:3] z8 | 
[V:4] z8 | 
[V:1] A4G4- | 
[V:2] A2c4B2 | 
[V:3] z8 | 
[V:4] z8 | 
[V:1] G4E4 | 
[V:2] c8 | 
[V:3] z8 | 
[V:4] z8 | 
[V:1] F4G4 | 
[V:2] z8 | 
[V:3] z8 | 
[V:4] z8 | 
[V:1] C4G4- | 
[V:2] e8- | 
[V:3] z8 | 
[V:4] z8 | 
[V:1] G2A2B2c2- | 
[V:2] e8 | 
[V:3] z8 | 
[V:4] z8 | 
[V:1] cBAGA4 | 
[V:2] f8 | 
[V:3] z8 | 
[V:4] z8 | 
[V:1] _B4A2G2- | 
[V:2] g4f2e2- | 
[V:3] z8 | 
[V:4] z8 | 
[V:1] G2FEF2G2- | 
[V:2] e2dcd2e2- | 
[V:3] z8 | 
[V:4] z8 | 
[V:1] G2FED4 | 
[V:2] e2dcB3A | 
[V:3] z8 | 
[V:4] z8 | 
[V:1] C4z4 | 
[V:2] c8- | 
[V:3] z8 | 
[V:4] z8 | 
[V:1] G4A4 | 
[V:2] c8 | 
[V:3] z8 | 
[V:4] z8 | 
[V:1] G4c4 | 
[V:2] G4A4 | 
[V:3] z8 | 
[V:4] z8 | 
[V:1] d2e4dc | 
[V:2] G4c4 | 
[V:3] z8 | 
[V:4] z8 | 
[V:1] B4e4 | 
[V:2] d2e4dc | 
[V:3] z8 | 
[V:4] z8 | 
[V:1] d4c4 | 
[V:2] B4e4 | 
[V:3] z8 | 
[V:4] z8 | 
[V:1] f4e2c2- | 
[V:2] d4c4 | 
[V:3] z8 | 
[V:4] z8 | 
[V:1] c2d4cB | 
[V:2] f4e2c2- | 
[V:3] z8 | 
[V:4] z8 | 
[V:1] A4B2c2- | 
[V:2] c2d4c2 | 
[V:3] z8 | 
[V:4] z8 | 
[V:1] c2BAG4 | 
[V:2] A4B2c2- | 
[V:3] z8 | 
[V:4] z8 | 
[V:1] c4d2e2- | 
[V:2] c2BAG4 | 
[V:3] z8 | 
[V:4] z8 | 
[V:1] ede2f2g2 | 
[V:2] c4d2e2- | 
[V:3] z8 | 
[V:4] z8 | 
[V:1] e4d2e2- | 
[V:2] ede2f2g2 | 
[V:3] z8 | 
[V:4] z8 | 
[V:1] edc4B2 | 
[V:2] c4d4 | 
[V:3] z8 | 
[V:4] z8 | 
[V:1] c8 ||  
[V:2] c8 ||  
[V:3] z8 ||  
[V:4] z8 ||  
[V:1]  [K:C] [K:clef=treble][M:2/1]z8 | 
[V:2]  [K:C] [K:clef=treble-8][M:2/1]c8 | 
[V:3]  [K:C] [K:clef=treble-8][M:2/1]z8 | 
[V:4]  [K:C] [K:clef=bass][M:2/1]C,4F,4 | 
[V:1] z8 | 
[V:2] c4d4- | 
[V:3] z8 | 
[V:4] E,4D,2G,2- | 
[V:1] z8 | 
[V:2] d4d4 | 
[V:3] z8 | 
[V:4] G,2A,2B,4 | 
[V:1] z8 | 
[V:2] e8 | 
[V:3] z8 | 
[V:4] C4z4 | 
[V:1] z8 | 
[V:2] e4c4- | 
[V:3] z8 | 
[V:4] C,8 | 
[V:1] z8 | 
[V:2] c4c4 | 
[V:3] z8 | 
[V:4] C,4F,4- | 
[V:1] z8 | 
[V:2] f6e2 | 
[V:3] z8 | 
[V:4] F,2G,2A,4 | 
[V:1] z8 | 
[V:2] d4c2d2- | 
[V:3] z8 | 
[V:4] _B,3G,A,2B,2- | 
[V:1] z8 | 
[V:2] d2B2A4 | 
[V:3] z8 | 
[V:4] B,2G,4^F,2 | 
[V:1] z8 | 
[V:2] G8- | 
[V:3] z8 | 
[V:4] G,8 | 
[V:1] z8 | 
[V:2] G8 | 
[V:3] z8 | 
[V:4] z4G,4 | 
[V:1] z8 | 
[V:2] z8 | 
[V:3] z8 | 
[V:4] G,4F,4 | 
[V:1] z8 | 
[V:2] z4g4 | 
[V:3] z8 | 
[V:4] E,4E,2G,2- | 
[V:1] z8 | 
[V:2] g4f4 | 
[V:3] z8 | 
[V:4] G,2F,E,D,4 | 
[V:1] z8 | 
[V:2] e4e2g2- | 
[V:3] z8 | 
[V:4] C,8 | 
[V:1] z8 | 
[V:2] g2fed4 | 
[V:3] z8 | 
[V:4] C4B,4 | 
[V:1] z8 | 
[V:2] c3de2d2- | 
[V:3] z8 | 
[V:4] A,2C4B,2 | 
[V:1] z8 | 
[V:2] d2cBA4 | 
[V:3] z8 | 
[V:4] G,4F,4 | 
[V:1] z8 | 
[V:2] G3AB2c2 | 
[V:3] z8 | 
[V:4] G,6A,2 | 
[V:1] z8 | 
[V:2] G2c2d2e2- | 
[V:3] z8 | 
[V:4] B,2C2G,4 | 
[V:1] z8 | 
[V:2] efg3fed | 
[V:3] z8 | 
[V:4] C,4G,4 | 
[V:1] z8 | 
[V:2] fedcB4 | 
[V:3] z8 | 
[V:4] A,4G,2G,2- | 
[V:1] z8 | 
[V:2] g4f2e2- | 
[V:3] z8 | 
[V:4] G,2E,2F,2G,2 | 
[V:1] z8 | 
[V:2] e2dcB3A | 
[V:3] z8 | 
[V:4] C,4D,4 | 
[V:1] z8 ||  
[V:2] c8 ||  
[V:3] z8 ||  
[V:4] C,8 ||  
[V:1] [M:2/1]c8 | 
[V:2] [M:2/1]c8- | 
[V:3] [M:3/0]g8- :
[V:4] [M:2/1]C,8 | 
[V:1] c4c4 | 
[V:2] c8 | 
[V:3] g8 :
[V:4] C,4C,4 | 
[V:1] B8 | 
[V:2] d4d4 | 
[V:3] g8 | 
[V:4] G,8 | 
[V:1] A8 | 
[V:2] d8 | 
[V:3] f8- :
[V:4] D,4D,4 | 
[V:1] z4A4 | 
[V:2] A8 | 
[V:3] f8 :
[V:4] F,4F,4 | 
[V:1] c4c4 | 
[V:2] z4A4 | 
[V:3] f8 | 
[V:4] F,8 | 
[V:1] c6BA | 
[V:2] c4c4 | 
[V:3] e8- :
[V:4] C,8- | 
[V:1] G8 | 
[V:2] c6BA | 
[V:3] e8 :
[V:4] C,8- | 
[V:1] G4G4- | 
[V:2] G6c2- | 
[V:3] e8 | 
[V:4] C,8 | 
[V:1] G4G4 | 
[V:2] c2d2e4 | 
[V:3] z8 :
[V:4] z8 | 
[V:1] A4F2G2- | 
[V:2] f4d2e2- | 
[V:3] z8 :
[V:4] z8 | 
[V:1] G2F2E4 | 
[V:2] edd4^c2 | 
[V:3] z8 | 
[V:4] z8 | 
[V:1] D8 | 
[V:2] d8- | 
[V:3] f8- :
[V:4] z4D,4- | 
[V:1] z4A4- | 
[V:2] d8 | 
[V:3] f8 :
[V:4] D,4D,4 | 
[V:1] A4A4 | 
[V:2] z4A4- | 
[V:3] f8 | 
[V:4] F,6G,2 | 
[V:1] c6BA | 
[V:2] A2B2c4- | 
[V:3] e8- :
[V:4] A,4A,4 | 
[V:1] G4A4 | 
[V:2] c2d2e3f | 
[V:3] e8 :
[V:4] C6B,A, | 
[V:1] B4c4 | 
[V:2] g4c4 | 
[V:3] e8 | 
[V:4] G,4A,4 | 
[V:1] d6cB | 
[V:2] z4G4 | 
[V:3] d8- :
[V:4] _B,6A,G, | 
[V:1] A4G4 | 
[V:2] A4B4- | 
[V:3] d8- :
[V:4] F,4G,4 | 
[V:1] z4A4 | 
[V:2] B2G2A4 | 
[V:3] d8 | 
[V:4] D,2G,4^F,2 | 
[V:1] B2c2d4- | 
[V:2] G8 | 
[V:3] z8 :
[V:4] G,6A,2 | 
[V:1] d2c2A2B2 | 
[V:2] z8 | 
[V:3] z8 :
[V:4] B,2C2D4 | 
[V:1] c2A4^G2 | 
[V:2] z8 | 
[V:3] z8 | 
[V:4] A,2C2B,4 | 
[V:1] A8- | 
[V:2] c8 | 
[V:3] e8- :
[V:4] A,8 | 
[V:1] A8 | 
[V:2] A4A4 | 
[V:3] e8 :
[V:4] z4A,4 | 
[V:1] z4A4- | 
[V:2] B4c4 | 
[V:3] e8 | 
[V:4] G,4A,4 | 
[V:1] A4B4 | 
[V:2] d4G2d2- | 
[V:3] d8- :
[V:4] D,4G,4 | 
[V:1] A4G2d2- | 
[V:2] d2c2B2G2 | 
[V:3] d8 :
[V:4] F,4G,4 | 
[V:1] dcA2B4 | 
[V:2] A4G4 | 
[V:3] d8 | 
[V:4] D,4G,4 | 
[V:1] c2A4GF | 
[V:2] z4A3B | 
[V:3] c8- :
[V:4] A,2F,4E,D, | 
[V:1] E4A4 | 
[V:2] c6F2 | 
[V:3] c8- :
[V:4] C,4F,4 | 
[V:1] G2A4GF | 
[V:2] G2F2A3B | 
[V:3] c8 | 
[V:4] E,2F,4E,D, | 
[V:1] E8 | 
[V:2] c6BA | 
[V:3] z8 :
[V:4] C,4C,4 | 
[V:1] z8 | 
[V:2] B4c2d2- | 
[V:3] z8 :
[V:4] G,4A,2B,2- | 
[V:1] z8 | 
[V:2] d2B2A4 | 
[V:3] z8 | 
[V:4] B,A,G,4^F,2 | 
[V:1] z8 | 
[V:2] G8 | 
[V:3] d8- :
[V:4] G,8- | 
[V:1] z4G4 | 
[V:2] z8 | 
[V:3] d8 :
[V:4] G,8 | 
[V:1] A4B4 | 
[V:2] z4G4 | 
[V:3] d8 | 
[V:4] z8 | 
[V:1] c8 | 
[V:2] A2B2c4- | 
[V:3] c8- :
[V:4] z4C,4- | 
[V:1] G4A4 | 
[V:2] c4F4 | 
[V:3] c8 :
[V:4] C,4F,4 | 
[V:1] G2G4FE | 
[V:2] G8- | 
[V:3] c8 | 
[V:4] E,4C,4 | 
[V:1] D8- | 
[V:2] G8 | 
[V:3] B8- :
[V:4] z4G,4- | 
[V:1] D8- | 
[V:2] z8 | 
[V:3] B8- :
[V:4] G,4G,4 | 
[V:1] D8 | 
[V:2] z4g4- | 
[V:3] B8 | 
[V:4] G,6F,2 | 
[V:1] z8 | 
[V:2] g2f2e2d2 | 
[V:3] z8 :
[V:4] E,2D,2G,4- | 
[V:1] z8 | 
[V:2] g4f2e2- | 
[V:3] z8 :
[V:4] G,2E,2F,2G,2- | 
[V:1] z8 | 
[V:2] e2dcB3A | 
[V:3] z8 | 
[V:4] G,2F,E,D,4 | 
[V:1] z4G4- | 
[V:2] c8- | 
[V:3] c8- :
[V:4] C,8- | 
[V:1] G4G4 | 
[V:2] c8 | 
[V:3] c8 :
[V:4] C,8- | 
[V:1] G4A4 | 
[V:2] e8 | 
[V:3] c8 | 
[V:4] C,8 | 
[V:1] B4G4 | 
[V:2] d8 | 
[V:3] B8- :
[V:4] z4G,4- | 
[V:1] z4d4- | 
[V:2] G8 | 
[V:3] B8 :
[V:4] G,4G,4 | 
[V:1] d4d4 | 
[V:2] z8 | 
[V:3] B8 | 
[V:4] G,4G,4 | 
[V:1] c3Bc2A2- | 
[V:2] z8 | 
[V:3] A8- :
[V:4] A,4F,4- | 
[V:1] A2GFE4- | 
[V:2] c8 | 
[V:3] A8 :
[V:4] F,2G,2A,4 | 
[V:1] E2F2G2A2- | 
[V:2] c4c4- | 
[V:3] A8 | 
[V:4] z8 | 
[V:1] A2GFE4 | 
[V:2] c2c2c4 | 
[V:3] z8 :
[V:4] z8 | 
[V:1] z8 | 
[V:2] c4d4 | 
[V:3] z8 :
[V:4] A,4B,4 | 
[V:1] z8 | 
[V:2] c2B2A4 | 
[V:3] z8 | 
[V:4] A,2G,4^F,2 | 
[V:1] d8 | 
[V:2] G4d4- | 
[V:3] B8- :
[V:4] G,8- | 
[V:1] G4d4- | 
[V:2] d2e2d2g2- | 
[V:3] B8 :
[V:4] G,8 | 
[V:1] d4B4 | 
[V:2] g2fed4 | 
[V:3] B8 | 
[V:4] z4G,4 | 
[V:1] c6A2- | 
[V:2] c8 | 
[V:3] A8- :
[V:4] A,4F,4- | 
[V:1] A2GFE2A2- | 
[V:2] z8 | 
[V:3] A8 :
[V:4] F,2E,D,C,2F,2- | 
[V:1] AGG4^F2 | 
[V:2] z8 | 
[V:3] A8 | 
[V:4] F,2G,2D,4 | 
[V:1] G8- | 
[V:2] z4d4 | 
[V:3] G8- :
[V:4] G,8 | 
[V:1] G8 | 
[V:2] d4d4 | 
[V:3] G8 :
[V:4] z8 | 
[V:1] z8 | 
[V:2] B4G4 | 
[V:3] G8 | 
[V:4] D4E2D2- | 
[V:1] z8 | 
[V:2] d4e2d2- | 
[V:3] z8 :
[V:4] D2B,2C2D2 | 
[V:1] z8 | 
[V:2] d2B2c2d2- | 
[V:3] z8 :
[V:4] B,3G,A,2B,2- | 
[V:1] z8 | 
[V:2] d2B2A4 | 
[V:3] z8 | 
[V:4] B,A,G,4^F,2 | 
[V:1] z4G4 | 
[V:2] G8 | 
[V:3] g8- :
[V:4] G,8- | 
[V:1] B6c2 | 
[V:2] z4G4 | 
[V:3] g8 :
[V:4] G,8 | 
[V:1] d2d4cB | 
[V:2] B4c4 | 
[V:3] g8 | 
[V:4] z8 | 
[V:1] A8- | 
[V:2] d8 | 
[V:3] f8- :
[V:4] z8 | 
[V:1] A8 | 
[V:2] z4d4 | 
[V:3] f8 :
[V:4] z8 | 
[V:1] z4A4 | 
[V:2] d4d4 | 
[V:3] f8 | 
[V:4] z8 | 
[V:1] c4c4 | 
[V:2] A8 | 
[V:3] e8- :
[V:4] z4A,4 | 
[V:1] c4B2c2- | 
[V:2] z8 | 
[V:3] e8 :
[V:4] A,4G,2A,2- | 
[V:1] c2BAG4 | 
[V:2] z4e4 | 
[V:3] e8 | 
[V:4] A,2G,F,E,4 | 
[V:1] A4G4 | 
[V:2] f4e4 | 
[V:3] z8 :
[V:4] D,4z4 | 
[V:1] E2F2G4 | 
[V:2] c2d2e4 | 
[V:3] z8 :
[V:4] z8 | 
[V:1] A2GFE4 | 
[V:2] f2d4^c2 | 
[V:3] z8 | 
[V:4] z8 | 
[V:1] D4A4- | 
[V:2] d8- | 
[V:3] f8- :
[V:4] D,8 | 
[V:1] A4A4 | 
[V:2] d8- | 
[V:3] f8 :
[V:4] D,4D,4- | 
[V:1] A4A4 | 
[V:2] d8 | 
[V:3] f8 | 
[V:4] D,4D,4 | 
[V:1] c4B2c2- | 
[V:2] z8 | 
[V:3] e8- :
[V:4] A,4G,2A,2- | 
[V:1] c2BAG4 | 
[V:2] A4B4 | 
[V:3] e8 :
[V:4] A,2G,F,E,4 | 
[V:1] B4c4 | 
[V:2] G2B2A4- | 
[V:3] e8 | 
[V:4] E,4A,4 | 
[V:1] d3cB2A2- | 
[V:2] A2G2d4- | 
[V:3] d8- :
[V:4] D,2G,4F,2 | 
[V:1] A2G4^F2 | 
[V:2] d2B2A4 | 
[V:3] d8- :
[V:4] G,4D,4 | 
[V:1] G8 | 
[V:2] G8 | 
[V:3] d8 | 
[V:4] G,8 | 
[V:1] z8 | 
[V:2] B4c4 | 
[V:3] z8 :
[V:4] G,4E,4 | 
[V:1] z8 | 
[V:2] d4d4 | 
[V:3] z8 :
[V:4] D,2G,4F,E, | 
[V:1] z8 | 
[V:2] d4e4 | 
[V:3] z8 | 
[V:4] D,4A,4- | 
[V:1] z4G4 | 
[V:2] c2A2B4 | 
[V:3] e8- :
[V:4] A,4E,4 | 
[V:1] A4B2c2- | 
[V:2] A4z4 | 
[V:3] e8 :
[V:4] A,4G,2A,2- | 
[V:1] c2BAG4 | 
[V:2] z8 | 
[V:3] e8 | 
[V:4] A,2B,2C4 | 
[V:1] F4D4 | 
[V:2] d4f4 | 
[V:3] d8- :
[V:4] z8 | 
[V:1] F4D4 | 
[V:2] d4f4- | 
[V:3] d8 :
[V:4] D,8 | 
[V:1] F6G2 | 
[V:2] f2g2a4 | 
[V:3] d8 | 
[V:4] D,4D,4 | 
[V:1] A6GF | 
[V:2] z4A4- | 
[V:3] c8- :
[V:4] F,6G,2 | 
[V:1] E4A4 | 
[V:2] A2B2c3d | 
[V:3] c8- :
[V:4] A,6G,F, | 
[V:1] G4A4 | 
[V:2] e4A4 | 
[V:3] c8 | 
[V:4] E,4F,4 | 
[V:1] D4z2A2- | 
[V:2] B4c4 | 
[V:3] z8 :
[V:4] G,4A,4 | 
[V:1] A2F2G2A2- | 
[V:2] d4e2f2- | 
[V:3] z8 :
[V:4] D,4C,2F,2- | 
[V:1] A2GFE4 | 
[V:2] f2edc4 | 
[V:3] z8 | 
[V:4] F,2G,2A,4 | 
[V:1] D8 | 
[V:2] d6cB | 
[V:3] d8- :
[V:4] _B,6A,G, | 
[V:1] z4A4 | 
[V:2] A2G2A4 | 
[V:3] d8 :
[V:4] F,2G,2D,4 | 
[V:1] B4B4 | 
[V:2] G8 | 
[V:3] d8 | 
[V:4] z4G,4 | 
[V:1] c6B2 | 
[V:2] e8 | 
[V:3] c8- :
[V:4] A,6G,2 | 
[V:1] A6GF | 
[V:2] f4f4 | 
[V:3] c8 :
[V:4] F,6E,D, | 
[V:1] E6G2- | 
[V:2] g8 | 
[V:3] c8 | 
[V:4] C,8 | 
[V:1] G2F2D2G2- | 
[V:2] G8 | 
[V:3] B8- :
[V:4] z4G,4 | 
[V:1] G2A2B2G2- | 
[V:2] z8 | 
[V:3] B8- :
[V:4] E,2F,2G,4 | 
[V:1] G2FED4 | 
[V:2] z4d4 | 
[V:3] B8 | 
[V:4] E,2F,2G,4 | 
[V:1] C4z4 | 
[V:2] e4f2g2- | 
[V:3] z8 :
[V:4] C,8 | 
[V:1] E4F2G2- | 
[V:2] g2fed2e2- | 
[V:3] z8 :
[V:4] z8 | 
[V:1] G2FED4 | 
[V:2] e2dcB3A | 
[V:3] z8 | 
[V:4] z8 | 
[V:1] C8 | 
[V:2] c6BA | 
[V:3] c8- :
[V:4] C,4F,4 | 
[V:1] G4A4 | 
[V:2] G4c4 | 
[V:3] c8 :
[V:4] E,4F,4 | 
[V:1] G4E2G2- | 
[V:2] e4e4 | 
[V:3] c8 | 
[V:4] C,8 | 
[V:1] G2FED4 | 
[V:2] d6G2 | 
[V:3] B8- :
[V:4] G,8- | 
[V:1] z4G4- | 
[V:2] d4e2g2- | 
[V:3] B8 :
[V:4] G,8 | 
[V:1] G2A2B4 | 
[V:2] g2fed4 | 
[V:3] B8 | 
[V:4] z4G,4 | 
[V:1] c2A4GF | 
[V:2] c4A2B2 | 
[V:3] A8- :
[V:4] A,4F,2G,2 | 
[V:1] E4z2D2 | 
[V:2] c4d4- | 
[V:3] A8- :
[V:4] A,4D,4- | 
[V:1] F2G2A4 | 
[V:2] d2cBA4 | 
[V:3] A8 | 
[V:4] D,2E,2F,4 | 
[V:1] B4c2d2- | 
[V:2] z8 | 
[V:3] z8 :
[V:4] G,4A,2_B,2- | 
[V:1] d2cBA2B2- | 
[V:2] z8 | 
[V:3] z8 :
[V:4] B,2A,G,F,2G,2- | 
[V:1] BAG4^F2 | 
[V:2] z8 | 
[V:3] z8 | 
[V:4] G,2B,2A,4 | 
[V:1] G8 | 
[V:2] d4d4 | 
[V:3] B8- :
[V:4] G,8- | 
[V:1] d4d4 | 
[V:2] B4G4 | 
[V:3] B8 :
[V:4] G,8 | 
[V:1] B4G4 | 
[V:2] z4d4 | 
[V:3] B8 | 
[V:4] G,8 | 
[V:1] z4A4- | 
[V:2] d4c4 | 
[V:3] A8- :
[V:4] D,4F,4- | 
[V:1] A4A4 | 
[V:2] f4e2a2- | 
[V:3] A8 :
[V:4] F,2G,2A,4 | 
[V:1] A4A4 | 
[V:2] ag^fe^f4 | 
[V:3] A8 | 
[V:4] D,8 | 
[V:1] B4G4 | 
[V:2] g6f2 | 
[V:3] G8- :
[V:4] z8 | 
[V:1] B3cd2e2- | 
[V:2] e2dcB2g2- | 
[V:3] G8- :
[V:4] z8 | 
[V:1] edc4B2 | 
[V:2] g2e2d4 | 
[V:3] G8 | 
[V:4] z8 | 
[V:1] c4z4 | 
[V:2] c8 | 
[V:3] z8 :
[V:4] C,6D,2 | 
[V:1] G6F2 | 
[V:2] z8 | 
[V:3] z8 :
[V:4] E,4C,4 | 
[V:1] E4D4 | 
[V:2] g6f2 | 
[V:3] z8 | 
[V:4] C4B,4 | 
[V:1] E2C4B,2 | 
[V:2] e4d4 | 
[V:3] g8- :
[V:4] C4G,4 | 
[V:1] C2E2D4 | 
[V:2] e2c4B2 | 
[V:3] g8- :
[V:4] z4G,4 | 
[V:1] C4z4 | 
[V:2] c2e2d4 | 
[V:3] g8- | 
[V:4] z4G,4 | 
[V:1] E4D2G2- | 
[V:2] c4z4 | 
[V:3] g8- :
[V:4] C4B,4 | 
[V:1] G2C2D2B,2 | 
[V:2] e4d2g2- | 
[V:3] g8- :
[V:4] C4G,4 | 
[V:1] C4z4 | 
[V:2] g2c2d2B2 | 
[V:3] g8- | 
[V:4] z2C,2G,4 | 
[V:1] e4d2e2- | 
[V:2] c4z4 | 
[V:3] g8- :
[V:4] C,4G,4 | 
[V:1] e2c2d2B2 | 
[V:2] e4d2e2- | 
[V:3] g8- :
[V:4] z2C,2G,4 | 
[V:1] c4z4 | 
[V:2] e2c2d2B2 | 
[V:3] g8- | 
[V:4] C,4G,4 | 
[V:1] e4d2e2- | 
[V:2] c4z4 | 
[V:3] g8- :
[V:4] z2C,2G,4 | 
[V:1] e2c2d2B2 | 
[V:2] e4d2e2- | 
[V:3] g8- :
[V:4] C,4G,4 | 
[V:1] c2e4dc | 
[V:2] e2c2e4 | 
[V:3] g8- | 
[V:4] C8 | 
[V:1] !fermata!B8 | 
[V:2] !fermata!d8 | 
[V:3] g8- :
[V:4] !fermata!G,8 | 
[V:1] c8 |]  
[V:2] c8 |]  
[V:3] g8 |]  
[V:4] C,8 |]  



